theme/essential/pix_core/e/special_character.svg

<!DOCTYPE svg PUBLIC "-//W3C//DTD SVG 1.1//EN" "http://www.w3.org/Graphics/SVG/1.1/DTD/svg11.dtd" [
	<!ENTITY ns_flows "http://ns.adobe.com/Flows/1.0/">
]><svg xmlns="http://www.w3.org/2000/svg" width="16" height="16" viewBox="0 0 16 16" preserveAspectRatio="xMinYMid meet" overflow="visible"><path d="M11 14h4l1-2v4h-6v-3.3c1-.5 1.9-1.2 2.5-2.2.6-1 1-2.2 1-3.4 0-1.7-.5-3.1-1.6-4.2-1.1-1.3-2.4-1.9-3.9-1.9s-2.8.6-3.9 1.8c-1.1 1.1-1.6 2.5-1.6 4.2 0 1.3.3 2.4 1 3.4s1.5 1.8 2.5 2.3v3.3h-6v-4l1 2h4v-.5c-1.5-.5-2.7-1.4-3.6-2.6-.9-1.1-1.4-2.4-1.4-3.9 0-1.9.8-3.6 2.3-5 1.6-1.3 3.5-2 5.7-2s4.1.7 5.7 2c1.6 1.4 2.3 3 2.3 5 0 1.5-.5 2.8-1.4 3.9-.9 1.2-2.1 2-3.6 2.6v.5z" fill="#999"/></svg>

<!DOCTYPE svg PUBLIC "-//W3C//DTD SVG 1.1//EN" "http://www.w3.org/Graphics/SVG/1.1/DTD/svg11.dtd" [
	<!ENTITY ns_flows "http://ns.adobe.com/Flows/1.0/">
]><svg xmlns="http://www.w3.org/2000/svg" width="16" height="16" viewBox="0 0 16 16" preserveAspectRatio="xMinYMid meet" overflow="visible"><path d="M11 14h4l1-2v4h-6v-3.3c1-.5 1.9-1.2 2.5-2.2.6-1 1-2.2 1-3.4 0-1.7-.5-3.1-1.6-4.2C10.8 1.6 9.5 1 8 1s-2.8.6-3.9 1.8C3 3.9 2.5 5.3 2.5 7c0 1.3.3 2.4 1 3.4S5 12.2 6 12.7V16H0v-4l1 2h4v-.5c-1.5-.5-2.7-1.4-3.6-2.6C.5 9.8 0 8.5 0 7c0-1.9.8-3.6 2.3-5C3.9.7 5.8 0 8 0s4.1.7 5.7 2C15.3 3.4 16 5 16 7c0 1.5-.5 2.8-1.4 3.9-.9 1.2-2.1 2-3.6 2.6v.5z" fill="#999"/></svg>
